X: 36991
T: Sí Beag Sí Mór
R: waltz
M: 3/4
K: Dmajor
de|:f2fe d2|d3e d2|B4 A2|F4 A2|BA Bc d2|e4 de|f2 f2 e2|d4 f2|
B4 e2|A4 d2|F3G E2|D4 f2|B4 e2|A4 dc|d2 de c2|d4 de:|
|:f2 fe d2|ed eg a2|b2 b2 a2|f4 ed|e2 e2 a2|f4 ed|d4 B2|B4 A2|
F2 GF GE|D4 f2|B4 e2|A4 a2|ba gf ed|e2 (3efe dc|d2 de dc|1 d4 de:|2 d6||

